public/img/removal/remove-status-blocked.svg

<svg fill="none" height="24" viewBox="0 0 24 24" width="24" xmlns="http://www.w3.org/2000/svg"><g fill="#fff"><path clip-rule="evenodd" d="m12 24c6.6274 0 12-5.3726 12-12 0-6.62742-5.3726-12-12-12-6.62742 0-12 5.37258-12 12 0 6.6274 5.37258 12 12 12zm0-2.4c5.3019 0 9.6-4.2981 9.6-9.6 0-5.30193-4.2981-9.6-9.6-9.6-5.30193 0-9.6 4.29807-9.6 9.6 0 5.3019 4.29807 9.6 9.6 9.6z" fill-rule="evenodd"/><path d="m9.26764 17.5683c-.68771.6877-1.80271.6877-2.49042 0s-.68771-1.8027 0-2.4904l8.30138-8.30144c.6877-.68771 1.8027-.68771 2.4904 0 .6878.68771.6878 1.80271 0 2.49043z"/><path d="m17.5691 15.0783c.6877.6877.6877 1.8027 0 2.4904-.6878.6877-1.8028.6877-2.4905 0l-8.30138-8.30144c-.68771-.68771-.68771-1.80271 0-2.49042s1.80271-.68771 2.49042 0z"/></g></svg>

<svg width="24" height="24" viewBox="0 0 24 24" fill="none" xmlns="http://www.w3.org/2000/svg">
<title>An X in a circle</title>
<path fill-rule="evenodd" clip-rule="evenodd" d="M12 24C18.6274 24 24 18.6274 24 12C24 5.37258 18.6274 0 12 0C5.37258 0 0 5.37258 0 12C0 18.6274 5.37258 24 12 24ZM12 21.6C17.3019 21.6 21.6 17.3019 21.6 12C21.6 6.69807 17.3019 2.4 12 2.4C6.69807 2.4 2.4 6.69807 2.4 12C2.4 17.3019 6.69807 21.6 12 21.6Z" fill="#fff"/>
<path d="M9.26764 17.5683C8.57993 18.256 7.46493 18.256 6.77722 17.5683C6.08951 16.8806 6.08951 15.7656 6.77722 15.0779L15.0786 6.77646C15.7663 6.08875 16.8813 6.08875 17.569 6.77646C18.2568 7.46417 18.2568 8.57917 17.569 9.26689L9.26764 17.5683Z" fill="#fff"/>
<path d="M17.5691 15.0783C18.2568 15.766 18.2568 16.881 17.5691 17.5687C16.8813 18.2564 15.7663 18.2564 15.0786 17.5687L6.77722 9.26726C6.08951 8.57955 6.08951 7.46455 6.77722 6.77684C7.46493 6.08913 8.57993 6.08913 9.26764 6.77684L17.5691 15.0783Z" fill="#fff"/>
</svg>
